X:1
T:Title
%%score { ( 1 3 ) | ( 2 4 ) }
L:1/8
M:3/4
K:D
V:1 treble nm="Grand Piano"
V:3 treble 
V:2 bass 
V:4 bass 
V:1
 z2 z2[Q:1/4=94] F2 | A3 [B,DG] [G,CE][A,CF] | [F,D]4 [F,CF]2 | %3
 [G,B,]3 [E,A,C] [D,A,D][K:treble][B,DE] | [DF]2 E2 F2 | [EA]3 [G,DG] [B,DE][A,CF] | %6
 [F,D]4 [B,DF]2 | [B,EG]3 [B,DG] [A,CF][K:bass][G,CE] | [F,D]4 [F,D]2 | [Dd]3 d cB | A>G F3 F | %11
 B3 B AF | ED [CE]2 [DF]2 | [EA]3 [G,DG] [B,DE][A,CF] | [F,D]4 [B,DF]2 | %15
 [B,EG]3 [B,DG] [A,CF][K:bass][G,CE] |[M:2/4] [F,D]4 |] %17
V:2
 z2 z2 [D,A,D]2 | [D,F,D]3 G,, A,,A,, | B,,4 A,,2 | G,,3 G,, F,,G,, | z2 C2 [D,A,D]2 | %5
 [C,E,]3 B,, G,,A,, | B,,4 B,,2 | E,3 E, A,,A,, | D,4 D,2 | %9
 [B,,B,]3[K:treble] [B,DF] [A,DF][G,DG] | [F,A,D]>[E,A,C] [D,A,D]3 [D,A,D] | %11
 [G,D]3 [G,D] [F,A,D][D,A,D] | [E,^G,B,][E,G,] [A,,A,]2 [D,A,]2 | [C,E,]3 B,, G,,A,, | B,,4 B,,2 | %15
 E,3 E, A,,A,, |[M:2/4] D,4 |] %17
V:3
 x6 | x6 | x6 | x5[K:treble] x | A,4 z2 | x6 | x6 | x5[K:bass] x | x6 | x6 | x6 | x6 | x6 | x6 | %14
 x6 | x5[K:bass] x |[M:2/4] x4 |] %17
V:4
 x6 | x6 | x6 | x6 | A,,4 z2 | x6 | x6 | x6 | x6 | x3[K:treble] x3 | x6 | x6 | x6 | x6 | x6 | x6 | %16
[M:2/4] x4 |] %17

